svgs/solid/gun-squirt.svg

<svg xmlns="http://www.w3.org/2000/svg" viewBox="0 0 576 512"><!--! Font Awesome Pro 6.1.2 by @fontawesome - https://fontawesome.com License - https://fontawesome.com/license (Commercial License) Copyright 2022 Fonticons, Inc. --><path d="M560 128H544V112C544 85.49 522.5 64 496 64H128V56C128 42.74 117.3 32 104 32S80 42.74 80 56v9.613C34.64 73.27 0 112.5 0 160c0 47.59 34.72 86.81 80.16 94.4l-46.91 184.8C27.41 459.6 42.76 480 64.02 480h103.8c14.29 0 26.84-9.469 30.77-23.21L220.6 376H272v16c0 13.25 10.75 24 24 24S320 405.3 320 392v-80C320 298.7 309.3 288 296 288S272 298.7 272 312v16H233.6L253.2 256H496C522.5 256 544 234.5 544 208V192h16C568.8 192 576 184.8 576 176v-32C576 135.2 568.8 128 560 128zM448 192H96C78.33 192 64 177.7 64 160s14.33-32 32-32h352c17.67 0 32 14.33 32 32S465.7 192 448 192z"/></svg>

<svg xmlns="http://www.w3.org/2000/svg" viewBox="0 0 576 512"><!--! Font Awesome Pro 6.2.0 by @fontawesome - https://fontawesome.com License - https://fontawesome.com/license (Commercial License) Copyright 2022 Fonticons, Inc. --><path d="M128 56c0-13.3-10.7-24-24-24S80 42.7 80 56v9.3C34.6 72.9 0 112.4 0 160c0 47.3 34.3 86.7 79.4 94.6L33 440.2c-2.4 9.6-.2 19.7 5.8 27.5S54.1 480 64 480H168c14.7 0 27.5-10 31-24.2L219 376h53v16c0 13.3 10.7 24 24 24s24-10.7 24-24V352 312c0-13.3-10.7-24-24-24s-24 10.7-24 24v16H231l18-72H496c26.5 0 48-21.5 48-48V192c17.7 0 32-14.3 32-32s-14.3-32-32-32V112c0-26.5-21.5-48-48-48H128V56zM96 128H448c17.7 0 32 14.3 32 32s-14.3 32-32 32H96c-17.7 0-32-14.3-32-32s14.3-32 32-32z"/></svg>
